X:17
T:Boil the Breakfast Early
Z: id:dc-reel-17
M:C
L:1/8
K:G Major
G3B ADD2|GBB2 c2BA|G3B ADD2|GEE2 c2BA|!
G3B ADD2|GBB2 c2Bc|dBcA BGAF|GEE2 c2Bc|]!
dAA2 dAFA|dAA2 defe|dAA2 dAFA|GEE2 c2Bc|!
dAA2 dAFA|dAA2 defe|d2^cd BdAF|GEE2 c2BA|]!

